!!!COM: Jules Massenet
!!!CNT: Francais
!!!TXO: Francais
!!!OTL: L'Esclave
!!!LYR: The/ophile Gautier
!!!ENC: Jacob Pegg
!!!YOR: Romantic French Song 1830-1870 - David Tunley, ed.,
!!!YOR: New York: Garland Publishing, Inc., 1995, Vol. 6
!!!ODT: 1868/
!!NB: Vocal melody and text only encoded.
!!NB: First instance of melodic material only encoded.
**kern	**silbe
*clef G2	*
*k[b-]	*
*M2/4	*
!!created: 12/20/03 13:09
!!proofed and posted: 1/22/04 0:16
!!edit time: 109 min.
=1	=1
4r	.
8.r	.
{16a	{Cap-
=2	=2
8a	-tive
16.a	et
32a	peut~
8g	~e^tre
16.b-	ou-
32dd	-bli-
=3	=3
(4dd	-e/-
8cc)}	-e,}
{8e	{Je
=4	=4
8f	songe
16g	a\
16a	mes
8b-	jeu-
16cc	-nes
(eeq	a-
16dd)	|
=5	=5
4cc}	-mours,}
16r	.
{(16f	{A
16a	mes
16g)	beaux
=6	=6
2g}	jours!}
=7	=7
{16g	{Et
16g	par
16g	la
16g	fe-
8a	-ne^-
16.a	-tre
32a	gril-
=8	=8
(4cc	-le/-
8b-)}	-e}
{16cc	{Je
16cc	re-
=9	=9
8dd	-gar-
8dd	-de
8ee	l’oi-
16ee	-seau
16a	joy-
=10	=10
2ff}	-eux,}
=11	=11
8r;	.
{(8f	{Fen-
8g	-dant
8cc)	les
=12	=12
[2cc	cieux!
=13	=13
4cc]}	|}
4r	.
=14	=14
4r	.
8r	.
{16.a	{Douce
32a	et
=15	=15
8dd	pa^-
8dd	-le
8bn	con-
16bn	-so-
16bn	-la-
=16	=16
4ee	-tri-
8ee}	-ce,}
{16.ee	{Es-
32ee	-pe/-
=17	=17
(8gg	-ran-
8g)	-ce,
8a	ray-
16bn	-on
16cc	d’en
=18	=18
4dd}	haut,}
16r	.
{16a	{Dans
16.cc	mon
32bn	ca-
=19	=19
4bn}	-chot}
8.r	.
{16bn	{Fais~
=20	=20
8.dd	~moi,
16a	dans
16a	ta
16a	clar-
16a	-te/
16a	pro-
=21	=21
4bn	-pi-
8bn}	-ce,}
8r	.
=22	=22
{8dd	{A
16dd	ton
16dd	mi-
16dd	-roir
16a	faux
16.a	et
32a	char-
=23	=23
2b-}	-mant}
=24	=24
8r	.
{8dd	{Voir
8.gg	mon
16ff	a-
=25	=25
[2ee	-mant!
=26	=26
4ee]}	|}
4r	.
!! repeat first phrase (1-13)
*-	*-
